public/images/logo.svg

<svg height="50" viewBox="0 0 201 29" width="222" xmlns="http://www.w3.org/2000/svg"><g fill="none" fill-rule="evenodd"><g fill-rule="nonzero"><g fill="#414f9b"><path d="m.2 2c0-.8.6-1.4 1.4-1.5 7.4-.9 12.9 1.3 13.9 7.7.4 2.9-.6 5.9-2.9 7.8-1.4 1.2-3.1 1.8-4.9 2.1-1.5.2-2.7 1.5-2.7 3v1.8h-4.8zm10.6 6.8c-.4-2.3-1.7-3.9-4.2-3.9-.9 0-1.6.7-1.6 1.6v6.8c3.5.5 6.3-1.4 5.8-4.5z"/><path d="m24.1.9h2.5l7.8 21.8h-4.8l-1.5-4h-3.9c-1.8 0-3.4 1.1-4 2.7l-.5 1.2h-4.8l7.7-20.6c.2-.7.8-1.1 1.5-1.1zm2.4 13.2-1.3-4.4c-.1-.3-.6-.3-.7 0l-1.5 4.4z"/><path d="m37 1.9c0-.7.5-1.3 1.3-1.4 8.4-1 13 1.2 14 7.6.4 2.9-.6 5.8-2.8 7.8l3.3 6.9h-5.2l-2.2-4.9c-.3.1-.6.1-1 .1-1.5.2-2.6 1.4-2.6 2.9v1.9h-4.8zm9.3 10.3c1-.9 1.5-2.1 1.3-3.5-.4-2.5-1.9-3.7-4.7-3.8-.6 0-1.1.4-1.1 1v7.3c1.9.3 3.4 0 4.5-1z"/><path d="m55.2 4.4.3-2.8c.1-.6.6-1 1.2-1h3.3v7.4l6-7.4h6l-7.6 9.5 7.5 12.6h-5.2l-5.3-8.9-.4.5c-.7.7-1 1.6-1 2.6v5.9h-4.8z"/></g><path d="m82 .9h2.5l7.8 21.8h-4.8l-1.5-4h-4c-1.7 0-3.2 1-3.9 2.6l-.5 1.3h-4.8l7.7-20.8c.3-.5.9-.9 1.5-.9zm2.4 13.2-1.3-4.4c-.1-.3-.6-.4-.7 0l-1.5 4.4z" fill="#545454"/><path d="m96.1.5h3.7l5.8 10.5c.4.8 1.7.5 1.7-.4v-9c0-.6.5-1 1-1h3.6v22.2h-5.1l-6.3-11.5c-.3-.5-1-.3-1 .3v11.2h-4.7v-21c.1-.7.7-1.3 1.3-1.3z" fill="#545454"/><path d="m114.5 22.7v-21c0-.8.6-1.4 1.4-1.5 1.1-.1 2.3-.2 3.2-.2 7.7 0 12.6 4.5 12.6 11.5 0 7.3-4.8 11.4-13.5 11.4-1.1 0-2.5-.1-3.7-.2zm12.5-11.2c0-3.8-2.2-6.6-5.9-6.9-1.2-.1-2.2.8-2.2 2v11.6c4.9.3 8.1-2 8.1-6.7z" fill="#545454"/><path d="m135.4.6h12.5v4.7h-7.7c-.7 0-1.3.6-1.3 1.3v3.9h7.3v4.4h-4.2c-1.7 0-3.1 1.4-3.1 3.1v4.8h-4.7v-21c.1-.7.6-1.2 1.2-1.2z" fill="#da902b"/><path d="m151.4.6h3.7v17.4h9v4.7h-13.7v-21.1c0-.6.5-1 1-1z" fill="#da902b"/><path d="m170.1 13.9-6.9-12.1c-.3-.5.1-1.2.7-1.2h4.2l4.3 8 3.5-6.3c.6-1.1 1.7-1.7 2.9-1.7h3.6l-7 12.1c-.4.8-.7 1.6-.7 2.5v7.6h-4.7v-8.9z" fill="#da902b"/></g><path d="m.2 25.8h173.9s13-.6 17.1-8.1l-8.8-2.9 1.9-1.5 9.9.9s4.9-5.3 5.6-4.3c.7.9-2.3 4-3.8 5.9l2 10.6-1.3 1.1-4-8.6-4 4.4.9 2.7-1.3 2-1.6-3.4" stroke="#da902b"/></g></svg>

<svg width="222px" height="50px" viewBox="0 0 201 29" version="1.1" xmlns="http://www.w3.org/2000/svg" xmlns:xlink="http://www.w3.org/1999/xlink">
    <g id="Page-1" stroke="none" stroke-width="1" fill="none" fill-rule="evenodd">
        <g id="logo">
            <g id="Group" fill="#414F9B" fill-rule="nonzero">
                <path d="M0.2,2 C0.2,1.2 0.8,0.6 1.6,0.5 C9,-0.4 14.5,1.8 15.5,8.2 C15.9,11.1 14.9,14.1 12.6,16 C11.2,17.2 9.5,17.8 7.7,18.1 C6.2,18.3 5,19.6 5,21.1 L5,22.9 L0.2,22.9 L0.2,2 Z M10.8,8.8 C10.4,6.5 9.1,4.9 6.6,4.9 C5.7,4.9 5,5.6 5,6.5 L5,13.3 C8.5,13.8 11.3,11.9 10.8,8.8 L10.8,8.8 Z" id="Shape"></path>
                <path d="M24.1,0.9 L26.6,0.9 L34.4,22.7 L29.6,22.7 L28.1,18.7 L24.2,18.7 C22.4,18.7 20.8,19.8 20.2,21.4 L19.7,22.6 L14.9,22.6 L22.6,2 C22.8,1.3 23.4,0.9 24.1,0.9 L24.1,0.9 Z M26.5,14.1 L25.2,9.7 C25.1,9.4 24.6,9.4 24.5,9.7 L23,14.1 L26.5,14.1 Z" id="Shape"></path>
                <path d="M37,1.9 C37,1.2 37.5,0.6 38.3,0.5 C46.7,-0.5 51.3,1.7 52.3,8.1 C52.7,11 51.7,13.9 49.5,15.9 L52.8,22.8 L47.6,22.8 L45.4,17.9 C45.1,18 44.8,18 44.4,18 C42.9,18.2 41.8,19.4 41.8,20.9 L41.8,22.8 L37,22.8 L37,1.9 Z M46.3,12.2 C47.3,11.3 47.8,10.1 47.6,8.7 C47.2,6.2 45.7,5 42.9,4.9 C42.3,4.9 41.8,5.3 41.8,5.9 L41.8,13.2 C43.7,13.5 45.2,13.2 46.3,12.2 L46.3,12.2 Z" id="Shape"></path>
                <path d="M55.2,4.4 L55.5,1.6 C55.6,1 56.1,0.6 56.7,0.6 L60,0.6 L60,8 L66,0.6 L72,0.6 L64.4,10.1 L71.9,22.7 L66.7,22.7 L61.4,13.8 L61,14.3 C60.3,15 60,15.9 60,16.9 L60,22.8 L55.2,22.8 L55.2,4.4 Z" id="Path"></path>
            </g>
            <path d="M82,0.9 L84.5,0.9 L92.3,22.7 L87.5,22.7 L86,18.7 L82,18.7 C80.3,18.7 78.8,19.7 78.1,21.3 L77.6,22.6 L72.8,22.6 L80.5,1.8 C80.8,1.3 81.4,0.9 82,0.9 Z M84.4,14.1 L83.1,9.7 C83,9.4 82.5,9.3 82.4,9.7 L80.9,14.1 L84.4,14.1 Z" id="Shape" fill="#545454" fill-rule="nonzero"></path>
            <path d="M96.1,0.5 L99.8,0.5 L105.6,11 C106,11.8 107.3,11.5 107.3,10.6 L107.3,1.6 C107.3,1 107.8,0.6 108.3,0.6 L111.9,0.6 L111.9,22.8 L106.8,22.8 L100.5,11.3 C100.2,10.8 99.5,11 99.5,11.6 L99.5,22.8 L94.8,22.8 L94.8,1.8 C94.9,1.1 95.5,0.5 96.1,0.5 L96.1,0.5 Z" id="Path" fill="#545454" fill-rule="nonzero"></path>
            <path d="M114.5,22.7 L114.5,1.7 C114.5,0.9 115.1,0.3 115.9,0.2 C117,0.1 118.2,3.55271368e-15 119.1,3.55271368e-15 C126.8,3.55271368e-15 131.7,4.5 131.7,11.5 C131.7,18.8 126.9,22.9 118.2,22.9 C117.1,22.9 115.7,22.8 114.5,22.7 L114.5,22.7 Z M127,11.5 C127,7.7 124.8,4.9 121.1,4.6 C119.9,4.5 118.9,5.4 118.9,6.6 L118.9,18.2 C123.8,18.5 127,16.2 127,11.5 Z" id="Shape" fill="#545454" fill-rule="nonzero"></path>
            <path d="M135.4,0.6 L147.9,0.6 L147.9,5.3 L140.2,5.3 C139.5,5.3 138.9,5.9 138.9,6.6 L138.9,10.5 L146.2,10.5 L146.2,14.9 L142,14.9 C140.3,14.9 138.9,16.3 138.9,18 L138.9,22.8 L134.2,22.8 L134.2,1.8 C134.3,1.1 134.8,0.6 135.4,0.6 L135.4,0.6 Z" id="Path" fill="#DA902B" fill-rule="nonzero"></path>
            <path d="M151.4,0.6 L155.1,0.6 L155.1,18 L164.1,18 L164.1,22.7 L150.4,22.7 L150.4,1.6 C150.4,1 150.9,0.6 151.4,0.6 Z" id="Path" fill="#DA902B" fill-rule="nonzero"></path>
            <path d="M170.1,13.9 L163.2,1.8 C162.9,1.3 163.3,0.6 163.9,0.6 L168.1,0.6 L172.4,8.6 L175.9,2.3 C176.5,1.2 177.6,0.6 178.8,0.6 L182.4,0.6 L175.4,12.7 C175,13.5 174.7,14.3 174.7,15.2 L174.7,22.8 L170,22.8 L170,13.9 L170.1,13.9 Z" id="Path" fill="#DA902B" fill-rule="nonzero"></path>
            <path d="M0.2,25.8 L174.1,25.8 C174.1,25.8 187.1,25.2 191.2,17.7 L182.4,14.8 L184.3,13.3 L194.2,14.2 C194.2,14.2 199.1,8.9 199.8,9.9 C200.5,10.8 197.5,13.9 196,15.8 L198,26.4 L196.7,27.5 L192.7,18.9 L188.7,23.3 L189.6,26 L188.3,28 L186.7,24.6" id="Path" stroke="#DA902B"></path>
        </g>
    </g>
</svg>
